dist/images/person.svg

<svg width="36" height="36" fill="none" xmlns="http://www.w3.org/2000/svg"><g clip-path="url(#a)"><path d="M18 18c3.315 0 6-2.685 6-6s-2.685-6-6-6-6 2.685-6 6 2.685 6 6 6Zm0 3c-4.005 0-12 2.01-12 6v3h24v-3c0-3.99-7.995-6-12-6Z" fill="#2D2D2D"/></g><defs><clipPath id="a"><path fill="#fff" d="M0 0h36v36H0z"/></clipPath></defs></svg>

<svg width="36" height="36" viewBox="0 0 36 36" fill="none" xmlns="http://www.w3.org/2000/svg">
<g clip-path="url(#clip0_3015_20)">
<path d="M18 18C21.315 18 24 15.315 24 12C24 8.685 21.315 6 18 6C14.685 6 12 8.685 12 12C12 15.315 14.685 18 18 18ZM18 21C13.995 21 6 23.01 6 27V30H30V27C30 23.01 22.005 21 18 21Z" fill="#2D2D2D"/>
</g>
<defs>
<clipPath id="clip0_3015_20">
<rect width="36" height="36" fill="white"/>
</clipPath>
</defs>
</svg>
